!!!!SEGMENT: pl-sa--271-a-vii-31_krassowski--haec-dies.krn
!!!cenid: 17xx:1362
!!!COM: Krassowski
!!!COM-rismID: pe41012340
!!!CDT: <1737->1737
!!!CNT: Polish
!!!OTL: Haec dies
!!!PDT:
!!!AGN:
!!!SMS-siglum: PL-SA
!!!SMS-shelfmark: 271/A VII 31
!!!SMS-shelfwork: W
!!!SMS-variant:
!!!SMS-altvar:
!!!NIFC-rismSourceID: 1001039792
!!!NIFC-rismChildID: 1001039792
!!!NIFC-islandoraID: none
!!!URL-pdf-islandora:
!!!URL-scan: https://bc.bdsandomierz.pl/dlibra/publication/1754/edition/1722/content @EN{Scan in the Sandomierz Diocese Digital Library} @PL{Skany w portalu Cyfrowa Biblioteka Diecezjalna w Sandomierzu}
!!!ONB-nifc:
!!!AIN: 1 alto 1 bass 2 clrno 1 organ 1 soprn 1 tenor 2 violn
!!!key: C
**kern	**fba	**kern	**kern	**kern	**text	**kern	**text	**kern	**text	**kern	**text	**kern	**kern
*part9	*part9	*part8	*part7	*part6	*part6	*part5	*part5	*part4	*part4	*part3	*part3	*part2	*part1
*staff9	*	*staff8	*staff7	*staff6	*staff6	*staff5	*staff5	*staff4	*staff4	*staff3	*staff3	*staff2	*staff1
*I"Organo.	*	*I"Violino 2dō.	*I"Violino 1mō.	*I"Baſso.	*	*I"Tenore.	*	*I"Alto.	*	*I"Canto.	*	*I"Clarino Secundo.	*I"Clarino. 1mo.
*I'org	*	*I'vl II	*I'vl I	*I'B	*	*I'T	*	*I'A	*	*I'C	*	*I'clno II	*I'clno I
*ICklav	*	*ICstr	*ICstr	*ICvox	*	*ICvox	*	*ICvox	*	*ICvox	*	*ICbras	*ICbras
*Iorgan	*	*Ivioln	*Ivioln	*Ibass	*	*Itenor	*	*Ialto	*	*Isoprn	*	*Iclrno	*Iclrno
*clefF4	*	*clefG2	*clefG2	*clefF4	*	*clefC4	*	*clefC3	*	*clefC1	*	*clefG2	*clefG2
*C:	*	*C:	*C:	*C:	*	*C:	*	*C:	*	*C:	*	*C:	*C:
*k[]	*	*k[]	*k[]	*k[]	*	*k[]	*	*k[]	*	*k[]	*	*k[]	*k[]
*M2/2	*	*M2/2	*M2/2	*M2/2	*	*M2/2	*	*M2/2	*	*M2/2	*	*M2/2	*M2/2
*met(c|)	*	*met(c|)	*met(c|)	*met(c|)	*	*met(c|)	*	*met(c|)	*	*met(c|)	*	*met(c|)	*met(c|)
=1	=1	=1	=1	=1	=1	=1	=1	=1	=1	=1	=1	=1	=1
!LO:TX:t=P:problem=oznaczenie metryczne C z kropką	!	!	!	!	!	!	!	!	!	!	!	!	!
!LO:TX:t=P:problem=brak oznaczenia tempa	!	!LO:TX:a:t=Solo	!	!	!	!	!	!	!	!	!	!	!
!LO:TX:a:t=Sonata	!	!LO:TX:b:t=Sonata.	!LO:TX:b:t=Sonata.	!	!	!	!	!	!	!	!	!LO:TX:b:t=Sonata.	!LO:TX:b:t=Sonata.
!LO:TX:b:t=Haec Dies. Solo.	!	!LO:TX:a:B:t=Vivace.	!LO:TX:a:B:t=Vivace.	!LO:TX:a:B:t=Vivace.	!	!LO:TX:a:B:t=Vivace.	!	!LO:TX:t=P:problem=brak oznaczenia tempa	!	!LO:TX:a:B:t=Vivace	!	!LO:TX:a:B:t=Vivace	!LO:TX:a:B:t=Vivace
4C/	.	16ee\LL	16gg\LL	1r	.	1r	.	1r	.	1r	.	16ee\LL	16gg\LL
.	.	16ee\	16gg\	.	.	.	.	.	.	.	.	16ee\	16gg\
.	.	16ee\	16gg\	.	.	.	.	.	.	.	.	16ee\	16gg\
.	.	16ee\JJ	16gg\JJ	.	.	.	.	.	.	.	.	16ee\JJ	16gg\JJ
4D/	3	16dd\LL	16ff\LL	.	.	.	.	.	.	.	.	16ff\LL	16aa\LL
.	.	16cc\	16ee\	.	.	.	.	.	.	.	.	16ff\	16aa\
.	.	16dd\	16ff\	.	.	.	.	.	.	.	.	16ff\	16aa\
.	.	16b\JJ	16dd\JJ	.	.	.	.	.	.	.	.	16ff\JJ	16aa\JJ
4E\	6 3	16ee\LL	16gg\LL	.	.	.	.	.	.	.	.	16ee\LL	16gg\LL
.	.	16ee\	16gg\	.	.	.	.	.	.	.	.	16ee\	16gg\
.	.	16ee\	16gg\	.	.	.	.	.	.	.	.	16ee\	16gg\
.	.	16ee\JJ	16gg\JJ	.	.	.	.	.	.	.	.	16ee\JJ	16gg\JJ
4G\	7 5 3	16dd\LL	16ff\LL	.	.	.	.	.	.	.	.	16dd\LL	16ff\LL
.	.	16cc\	16ee\	.	.	.	.	.	.	.	.	16cc\	16ee\
.	.	16dd\	16ff\	.	.	.	.	.	.	.	.	16dd\	16ff\
.	.	16b\JJ	16dd\JJ	.	.	.	.	.	.	.	.	16ee\JJ	16gg\JJ
=2	=2	=2	=2	=2	=2	=2	=2	=2	=2	=2	=2	=2	=2
4C/	.	16cc\LL	16ee\LL	1r	.	1r	.	1r	.	1r	.	16cc\LL	16ee\LL
.	.	16cc\	16ee\	.	.	.	.	.	.	.	.	16cc\	16ee\
.	.	16cc\	16ee\	.	.	.	.	.	.	.	.	16cc\	16ee\
.	.	16cc\JJ	16ee\JJ	.	.	.	.	.	.	.	.	16cc\JJ	16ee\JJ
4BB/	6	16b\LL	16dd\LL	.	.	.	.	.	.	.	.	16g/LL	16dd\LL
.	.	16a\	16cc\	.	.	.	.	.	.	.	.	16g/	16dd\
.	.	16b\	16dd\	.	.	.	.	.	.	.	.	16g/	16dd\
.	.	16g\JJ	16cc\JJ	.	.	.	.	.	.	.	.	16g/JJ	16dd\JJ
4C/	.	16cc\LL	16ee\LL	.	.	.	.	.	.	.	.	16cc\LL	16ee\LL
.	.	16b\	16ee\	.	.	.	.	.	.	.	.	16cc\	16ee\
.	.	16cc\	16ee\	.	.	.	.	.	.	.	.	16cc\	16ee\
.	.	16cc\JJ	16ee\JJ	.	.	.	.	.	.	.	.	16cc\JJ	16ee\JJ
4GG/	.	16b\LL	16dd\LL	.	.	.	.	.	.	.	.	16g/LL	16dd\LL
.	.	16a\	16cc\	.	.	.	.	.	.	.	.	16g/	16dd\
.	.	16b\	16dd\	.	.	.	.	.	.	.	.	16g/	16dd\
.	.	16g\JJ	16b\JJ	.	.	.	.	.	.	.	.	16g/JJ	16dd\JJ
=3	=3	=3	=3	=3	=3	=3	=3	=3	=3	=3	=3	=3	=3
4C/	.	16e/LL	16cc\LL	1r	.	1r	.	1r	.	1r	.	16e/LL	16cc\LL
.	.	16b/	16dd\	.	.	.	.	.	.	.	.	16g/	16dd\
.	.	16cc/	16ee\	.	.	.	.	.	.	.	.	16cc/	16ee\
.	.	16dd/JJ	16ff\JJ	.	.	.	.	.	.	.	.	16dd/JJ	16ff\JJ
4GG/	.	16b\LL	16gg\LL	.	.	.	.	.	.	.	.	8ee\	8gg\
.	.	16g\	16b\	.	.	.	.	.	.	.	.	.	.
.	.	16a\	16cc\	.	.	.	.	.	.	.	.	8r	8r
.	.	16b\JJ	16dd\JJ	.	.	.	.	.	.	.	.	.	.
!	!	!	!	!	!	!	!	!	!	!	!	!LO:LB:g=original	!
4C/	.	16cc\LL	16cc\LL	.	.	.	.	.	.	.	.	16e/LL	16cc\LL
.	.	16b\	16dd\	.	.	.	.	.	.	.	.	16g/JJ	16dd\
.	.	16cc\	16ee\	.	.	.	.	.	.	.	.	16cc\LL	16ee\
.	.	16dd\JJ	16ff\JJ	.	.	.	.	.	.	.	.	16ee\JJ	16ff\JJ
4GG/	.	16b\LL	16gg\LL	.	.	.	.	.	.	.	.	8ee\	8gg\
.	.	16g\	16b\	.	.	.	.	.	.	.	.	.	.
.	.	16a\	16cc\	.	.	.	.	.	.	.	.	8r	8r
.	.	16b\JJ	16dd\JJ	.	.	.	.	.	.	.	.	.	.
!	!	!LO:LB:g=original	!LO:LB:g=original	!	!	!	!	!	!	!	!	!	!LO:LB:g=original
=4	=4	=4	=4	=4	=4	=4	=4	=4	=4	=4	=4	=4	=4
4C/	.	16cc\LL	16ee\LL	1r	.	1r	.	1r	.	1r	.	16cc\LL	16ee\LL
.	.	16ee\	16gg\	.	.	.	.	.	.	.	.	16ee\	16gg\
.	.	16cc\	16ee\	.	.	.	.	.	.	.	.	16cc\	16ee\
.	.	16dd\JJ	16ff\JJ	.	.	.	.	.	.	.	.	16dd\JJ	16ff\JJ
4r	.	16ee\LL	16gg\LL	.	.	.	.	.	.	.	.	16ee\LL	16gg\LL
.	.	16ff\	16aa\	.	.	.	.	.	.	.	.	16ff\	16aa\
.	.	16cc\	16ee\	.	.	.	.	.	.	.	.	16cc\	16ee\
.	.	16dd\JJ	16ff\JJ	.	.	.	.	.	.	.	.	16dd\JJ	16ff\JJ
!LO:LB:g=original	!	!	!	!	!	!	!	!	!	!	!	!	!
!LO:TX:t=P:problem=mixed beam	!	!	!	!	!	!	!	!	!	!	!	!	!
8E/L	6	16ee\LL	16gg\LL	.	.	.	.	.	.	.	.	16ee\LL	16gg\LL
.	.	16ee\	16gg\	.	.	.	.	.	.	.	.	16ee\	16gg\
8F/	6 5	16dd\	16ff\	.	.	.	.	.	.	.	.	16dd\	16ff\
.	.	16cc\JJ	16ee\JJ	.	.	.	.	.	.	.	.	16cc\JJ	16ee\JJ
8G/	4	8.g/L	8.dd\L	.	.	.	.	.	.	.	.	8.g/L	8.dd\L
8GG/J	3	.	.	.	.	.	.	.	.	.	.	.	.
.	.	16g/Jk	16cc\Jk	.	.	.	.	.	.	.	.	16e/Jk	16cc\Jk
=5	=5	=5	=5	=5	=5	=5	=5	=5	=5	=5	=5	=5	=5
!	!	!	!LO:TX:b:t=Haec dies.	!	!	!	!	!	!	!	!	!	!
!LO:TX:t=P:problem=mixed beam	!	!LO:TX:a:t=Tuti&colon;	!LO:TX:a:t=Tutti	!	!	!	!	!	!	!	!	!	!
!LO:TX:b:t=Tutti.	!	!LO:TX:b:t=Haec dies.	!LO:TX:t=P:problem=mixed beam	!	!	!	!	!LO:TX:a:t=T.	!	!	!	!	!
8C\L	.	16e/LL	16gg\LL	8c\	Haec	8c\	Haec	8g\	Haec	8ee\	Haec	16g/LL	16g/LL
.	.	16g/	16g\	.	.	.	.	.	.	.	.	16g/	16g/
8c\	.	16g/	16g\	8c\	di-	8c\	di-	8g\	di-	8ee\	Di-	16g/	16g/
.	.	16g/JJ	16g\JJ	.	.	.	.	.	.	.	.	16g/JJ	16g/JJ
!	!	!LO:TX:t=P:problem=mixed beam	!LO:TX:t=P:problem=mixed beam	!	!	!	!	!	!	!	!	!	!
8B\	6	16gg\LL	16gg\LL	8B\	-es	8d\	-es	8g\	-es	8dd\	-es	16g/LL	16g/LL
.	.	16g\	16g\	.	.	.	.	.	.	.	.	16g/	16g/
8G\J	.	16g\	16g\	8G\	quam	8d\	quam	8d\	quam	8b\	quam	16g/	16g/
.	.	16g\JJ	16g\JJ	.	.	.	.	.	.	.	.	16g/JJ	16g/JJ
!LO:TX:t=P:problem=mixed beam	!	!	!	!	!	!	!	!	!	!	!	!	!
8c\L	.	16ee\LL	16gg\LL	8c\	Fe-	8c\	Fe-	8g\	Fe-	8ee\	fe-	16ee\LL	16gg\LL
.	.	16dd\	16ff\	.	.	.	.	.	.	.	.	16dd\	16ff\
8C\J	.	16cc\	16ee\	8C/	-cit	8c\	-cit	8g\	-cit	8ee\	-cit	16cc\	16ee\
.	.	16dd\JJ	16ff\JJ	.	.	.	.	.	.	.	.	16dd\JJ	16ff\JJ
4r	.	16ee\LL	16gg\LL	4r	.	4r	.	4r	.	4r	.	16ee\LL	16gg\LL
.	.	16dd\	16ff\	.	.	.	.	.	.	.	.	16dd\	16ff\
.	.	16cc\	16ee\	.	.	.	.	.	.	.	.	16cc\	16ee\
.	.	16dd\JJ	16ff\JJ	.	.	.	.	.	.	.	.	16dd\JJ	16ff\JJ
=6	=6	=6	=6	=6	=6	=6	=6	=6	=6	=6	=6	=6	=6
!	!	!LO:TX:t=P:problem=mixed beam	!LO:TX:t=P:problem=mixed beam	!	!	!	!	!	!	!	!	!	!
*	*	*	*	*	*ij	*	*ij	*	*ij	*	*ij	*	*
8c\L	.	16ee\LL	16gg\LL	8c\	Haec	8c\	Haec	8g\	Haec	8ee\	Haec	16g/LL	16g/LL
.	.	16g\	16g\	.	.	.	.	.	.	.	.	16g/	16g/
8c\	.	16g\	16g\	8c\	di-	8c\	di-	8g\	di-	8ee\	Di-	16g/	16g/
.	.	16g\JJ	16g\JJ	.	.	.	.	.	.	.	.	16g/JJ	16g/JJ
!	!	!LO:TX:t=P:problem=mixed beam	!LO:TX:t=P:problem=mixed beam	!	!	!	!	!	!	!	!	!	!
8B\	6	16gg\LL	16gg\LL	8B\	-es	8d\	-es	8g\	-es	8dd\	-es	16g/LL	16g/LL
.	.	16g\	16g\	.	.	.	.	.	.	.	.	16g/	16g/
8G\J	.	16g\	16g\	8G\	quam	8d\	quam	8d\	quam	8b\	quam	16g/	16g/
.	.	16g\JJ	16g\JJ	.	.	.	.	.	.	.	.	16g/JJ	16g/JJ
!LO:TX:t=P:problem=mixed beam	!	!	!	!	!	!	!	!	!	!	!	!LO:LB:g=original	!
8c\L	.	16ee\LL	16gg\LL	8c\	Fe-	8c\	Fe-	8g\	Fe-	8ee\	fe-	16ee\LL	16gg\LL
.	.	16dd\	16ff\	.	.	.	.	.	.	.	.	16dd\	16ff\
8C\J	.	16cc\	16ee\	8C/	-cit	8c\	-cit	8g\	-cit	8ee\	-cit	16cc\	16ee\
.	.	16dd\JJ	16ff\JJ	.	.	.	.	.	.	.	.	16dd\JJ	16ff\JJ
8r	.	16ee\LL	16gg\LL	8r	.	8r	.	8r	.	8r	.	16ee\LL	16gg\LL
.	.	16dd\	16ff\	.	.	.	.	.	.	.	.	16dd\	16ff\
*	*	*	*	*	*Xij	*	*Xij	*	*Xij	*	*Xij	*	*
8E\	.	16cc\	16ee\	8E\	quam	8c\	quam	8g\	quam	8cc\	quam	16cc\	16ee\
.	.	16ee\JJ	16ff\JJ	.	.	.	.	.	.	.	.	16ee\JJ	16gg\JJ
!	!	!	!	!	!	!	!	!	!	!	!	!	!LO:LB:g=original
=7	=7	=7	=7	=7	=7	=7	=7	=7	=7	=7	=7	=7	=7
!LO:TX:t=P:problem=mixed beam	!	!	!LO:TX:t=P:problem=mixed beam	!	!	!	!	!	!	!	!	!	!
8F/L	.	16a/LL	16aa\LL	8F\	Fe-	8c\	fe-	8a\	fe-	8cc\	Fe-	8cc\L	16e/LL
.	.	16a/	16a\	.	.	.	.	.	.	.	.	.	16e/JJ
8D/	7	16a/	16a\	8D\	-cit	8d\	-cit	8a\	-cit	8cc\	-cit	8cc\J	16g/LL
.	.	16a/JJ	16a\JJ	.	.	.	.	.	.	.	.	.	16g/
!	!	!LO:TX:t=P:problem=mixed beam	!LO:TX:t=P:problem=mixed beam	!	!	!	!	!	!	!	!	!	!
!	!	!LO:LB:g=original	!LO:LB:g=original	!	!	!	!	!	!	!	!	!	!
8G/	4 3	16gg\LL	16gg\LL	8.G\	Do-	8.c\	Do-	8.g\	Do-	8.cc\	Do-	16g/LL	16g/
.	.	16g\	16g\	.	.	.	.	.	.	.	.	16g/	16g/JJ
8GG/J	.	16g\	16g\	.	.	.	.	.	.	.	.	16g/	16g/LL
!	!	!	!	!	!	!	!	!	!	!LO:LB:g=original	!	!	!
.	.	16g\JJ	16g\JJ	16GG/	-mi-	16d\	-mi-	16g\	-mi-	16b\	-mi-	16g/JJ	16g/JJ
!LO:LB:g=original	!	!	!	!	!	!LO:LB:g=original	!	!LO:LB:g=original	!	!	!	!	!
4C/	.	16ee\LL	16gg\LL	4C/	-nus	4e\	-nus	4g\	-nus	4cc\	-nus	16ee\LL	16gg\LL
.	.	16dd\	16ff\	.	.	.	.	.	.	.	.	16dd\	16ff\
.	.	16cc\	16ee\	.	.	.	.	.	.	.	.	16cc\	16ee\
.	.	16dd\JJ	16ff\JJ	.	.	.	.	.	.	.	.	16dd\JJ	16ff\JJ
4r	.	16ee\LL	16gg\LL	4r	.	4r	.	4r	.	4r	.	16ee\LL	16gg\LL
.	.	16dd\	16ff\	.	.	.	.	.	.	.	.	16dd\	16ff\
.	.	16cc\	16ee\	.	.	.	.	.	.	.	.	16cc\	16ee\
.	.	16dd\JJ	16ff\JJ	.	.	.	.	.	.	.	.	16ee\JJ	16gg\JJ
!	!	!	!	!LO:LB:g=original	!	!	!	!	!	!	!	!	!
=8	=8	=8	=8	=8	=8	=8	=8	=8	=8	=8	=8	=8	=8
!	!	!LO:TX:t=P:problem=mixed beam	!LO:TX:t=P:problem=mixed beam	!	!	!	!	!	!	!	!	!	!
8A\L	-	16ee\LL	16aa\LL	8A\	Haec	8c\	Haec	8a\	Haec	8ee\	Haec	8e/L	8e/L
.	.	16a\	16a\	.	.	.	.	.	.	.	.	.	.
8A\	.	16a\	16a\	8A\	di-	8c\	di-	8a\	di-	8ee\	di-	8e/	8e/
.	.	16a\JJ	16a\JJ	.	.	.	.	.	.	.	.	.	.
!	!	!	!LO:TX:t=P:problem=mixed beam	!	!	!	!	!	!	!	!	!	!
8G#X\	6	16gg#X\LL	16bb\LL	8G#X\	-es	8B\	-es	8b\	-es	8ee\	-es	8e/	8e/
.	.	16g#X\	16b\	.	.	.	.	.	.	.	.	.	.
8E\J	.	16g#\	16b\	8E\	quam	8B\	qu(am)	8g#X\	quam	8ee\	quam	8e/J	8e/J
.	.	16g#\JJ	16b\JJ	.	.	.	.	.	.	.	.	.	.
!LO:TX:t=P:problem=mixed beam	!	!	!	!	!	!	!	!	!	!	!	!	!
8A\L	.	8ee\L	16ccc\LL	8A\	fe-	8c\	fe-	8a\	Fe-	8ee\	Fe-	8e/L	8e/L
.	.	.	16bb\	.	.	.	.	.	.	.	.	.	.
8AA\J	.	8ee\	16aa\	8AA/	-cit	8c\	-cit	8a\	-cit.	8ee\	-cit	8e/	8e/
.	.	.	16bb\JJ	.	.	.	.	.	.	.	.	.	.
4r	.	8ee\	16ccc\LL	4r	.	4r	.	4r	.	4r	.	8e/	8e/
.	.	.	16bb\	.	.	.	.	.	.	.	.	.	.
.	.	8ee\J	16aa\	.	.	.	.	.	.	.	.	8e/J	8e/J
.	.	.	16bb\JJ	.	.	.	.	.	.	.	.	.	.
=9	=9	=9	=9	=9	=9	=9	=9	=9	=9	=9	=9	=9	=9
!	!	!LO:TX:t=P:problem=mixed beam	!LO:TX:t=P:problem=mixed beam	!	!	!	!	!	!	!	!	!	!
*	*	*	*	*	*ij	*	*ij	*	*ij	*	*ij	*	*
8A\L	.	16aa\LL	16aa\LL	8A\	Haec	8c\	Haec	8a\	Haec	8ee\	Haec	8e/L	8e/L
.	.	16a\	16a\	.	.	.	.	.	.	.	.	.	.
8A\	.	16a\	16a\	8A\	di-	8c\	di-	8a\	di-	8ee\	di-	8e/	8e/
.	.	16a\JJ	16a\JJ	.	.	.	.	.	.	.	.	.	.
!	!	!	!LO:TX:t=P:problem=mixed beam	!	!	!	!	!	!	!	!	!	!
8G#X\	6	16gg#X\LL	16bb\LL	8G#X\	-es	8B\	-es	8b\	-es	8ee\	-es	8e/	8e/
!	!	!LO:TX:t=P:problem=♯ pod nutą	!	!	!	!	!	!	!	!	!	!	!
.	.	16g#X\	16b\	.	.	.	.	.	.	.	.	.	.
8E\J	.	16g#\	16b\	8E\	quam	8B\	quam	8g#X\	quam	8ee\	quam	8e/J	8e/J
.	.	16g#\JJ	16b\JJ	.	.	.	.	.	.	.	.	.	.
!LO:TX:t=P:problem=mixed beam	!	!	!	!	!	!	!	!	!	!	!	!	!
8A\L	.	16ee\LL	16ccc\LL	8A\	fe-	8c\	fe-	8a\	Fe-	8ee\	Fe-	8e/L	8e/L
.	.	16ee\	16bb\	.	.	.	.	.	.	.	.	.	.
8AA\J	.	16ee\	16aa\	8AA/	-cit	8c\	-cit	8a\	-cit	8ee\	-cit	8e/	8e/
.	.	16ee\JJ	16bb\JJ	.	.	.	.	.	.	.	.	.	.
*	*	*	*	*	*Xij	*	*Xij	*	*Xij	*	*Xij	*	*
8r	.	16ee\LL	16bb\LL	8r	.	8r	.	8r	.	8r	.	8e/	8e/
.	.	16ee\	16aa\	.	.	.	.	.	.	.	.	.	.
!	!	!	!LO:TX:t=P:problem=♯ nad nutą	!	!	!	!	!	!	!	!	!	!
8E\	#	16ee\	16gg#X\	8E\	quam	8B\	quam	8g#X\	quam	8ee\	quam	8e/J	8e/J
.	.	16ee\JJ	16bb\JJ	.	.	.	.	.	.	.	.	.	.
=10	=10	=10	=10	=10	=10	=10	=10	=10	=10	=10	=10	=10	=10
!LO:TX:t=P:problem=mixed beam	!	!	!LO:TX:t=P:problem=mixed beam	!	!	!	!	!	!	!	!	!	!
8F/L	6 5	16cc\LL	16ccc\LL	8F\	fe-	8d\	Fe-	8a\	fe-	8dd\	fe-	8e/L	8e/L
.	.	16cc\	16cc\	.	.	.	.	.	.	.	.	.	.
8D/	7 5	16cc\	16cc\	8D\	-cit	8A/	-cit	8a\	-cit	8dd\	-cit	8e/	8e/
.	.	16cc\JJ	16cc\JJ	.	.	.	.	.	.	.	.	.	.
!	!	!	!	!	!	!	!	!LO:LB:g=original	!	!	!	!	!
!	!	!	!	!	!	!	!	!	!	!	!	!	!
8E/	4	16aa\LL	16ccc\LL	8.E\	Do-	8.A/	Do-	8.a\	Do-	8.cc\	Do-	8e/	8e/
.	.	16aa\	16ccc\	.	.	.	.	.	.	.	.	.	.
!	!	!LO:TX:t=P:problem=♯ nad nutą	!	!	!	!	!	!	!	!	!	!	!
8EE/J	#	16gg#X\	16bb\	.	.	.	.	.	.	.	.	8e/J	8e/J
!	!	!	!	!	!	!	!	!	!	!LO:LB:g=original	!	!	!
.	.	16gg#\JJ	16bb\JJ	16EE/	-mi-	16B\	-mi-	16g#X\	-mi-	16b\	-mi-	.	.
!LO:LB:g=original	!	!	!LO:LB:g=original	!	!	!LO:LB:g=original	!	!	!	!	!	!	!
4AA/	-	16aa\LL	16ccc\LL	4AA/	-nus	4c\	-nus	4a\	-nus	4cc\	-nus	8e/L	8e/L
!	!	!LO:TX:t=P:problem=♯ nad nutą	!	!	!	!	!	!	!	!	!	!	!
.	.	16gg#X\	16bb\	.	.	.	.	.	.	.	.	.	.
!	!	!LO:TX:t=P:problem=♯ nad nutą	!	!	!	!	!	!	!	!	!	!	!
.	.	16ff#X\	16aa\	.	.	.	.	.	.	.	.	8e/	8e/
!	!	!LO:TX:t=P:problem=♯ nad nutą	!	!	!	!	!	!	!	!	!	!	!
.	.	16gg#X\JJ	16bb\JJ	.	.	.	.	.	.	.	.	.	.
!	!	!LO:LB:g=original	!	!	!	!	!	!	!	!	!	!	!
4r	.	16aa\LL	16ccc\LL	4r	.	4r	.	4r	.	4r	.	8e/	8e/
!	!	!LO:TX:t=P:problem=♯ nad nutą	!	!	!	!	!	!	!	!	!	!	!
.	.	16gg#X\	16bb\	.	.	.	.	.	.	.	.	.	.
.	.	16ff#\	16aa\	.	.	.	.	.	.	.	.	8e/J	8e/J
!	!	!LO:TX:t=P:problem=♯ nad nutą	!	!	!	!	!	!	!	!	!	!	!
.	.	16gg#X\JJ	16bb\JJ	.	.	.	.	.	.	.	.	.	.
!	!	!	!	!LO:LB:g=original	!	!	!	!	!	!	!	!LO:LB:g=original	!
=11	=11	=11	=11	=11	=11	=11	=11	=11	=11	=11	=11	=11	=11
8C\L	.	8ee\L	8ccc\L	8C/	e-	8c\	e-	8gn\L	e-	8cc\L	e-	8g/L	8g/L
16G\L	5	16dd\L	16bb\L	(16G\LL	-xul-	(16d\LL	-xul-	16b\L	-xul-	16b\L	-exul-	16g/L	16g/L
16F\JJ	.	16cc\JJ	16aa\JJ	16F\JJ)	.	16c\JJ)	.	16a\JJ	.	16a\JJ	.	16g/JJ	16g/JJ
8E\L	6	8cc\L	8gg\L	8E\	-te-	8c\	-te-	8g\	-te-	8g\	-te-	8e/L	8cc\L
8G\J	5	8dd\J	8gg\J	8G\	-mus	8d\	-mus	8g\	-mus	8b\	-mus	8g/J	8dd\J
*	*	*	*	*	*ij	*	*ij	*	*	*	*ij	*	*
8F\L	.	8cc\L	8aa\L	8F\	e-	8c\	e-	8a\	e-	8cc\	e-	8e/L	8cc\L
!	!	!	!	!	!	!	!	!	!	!LO:N:vis=8	!	!	!
16A\L	6	16ff\L	16ccc\L	16A\LL	-xul-	8c\	-xul-	(16f\LL	-xul-	16ff\LL	-xul-	16e/L	8cc\J
!	!	!	!	!	!	!	!	!	!	!LO:N:vis=8	!	!	!
16G\JJ	6	16ee\JJ	16ccc\JJ	16G\JJ	.	.	.	16g\JJ)	.	16ee\JJ	.	16e/JJ	.
8F\L	.	8cc\L	8aa\L	8F\	-te-	8c\	-te-	8a\	-te-	8ff\	-te-	8e/L	4cc\
8A\J	6	8ff\J	16ccc\L	8A\	-mus	8c\	-mus	8a\	-mus	8ff\	-mus	8e/J	.
.	.	.	16ccc\JJ	.	.	.	.	.	.	.	.	.	.
!	!	!	!	!	!	!	!	!	!	!	!	!	!LO:LB:g=original
=12	=12	=12	=12	=12	=12	=12	=12	=12	=12	=12	=12	=12	=12
*	*	*	*	*	*	*	*	*	*ij	*	*	*	*
8D\L	-	8ff\L	8ff\L	8D\	e-	8A\	e-	8f\	e-	8a\L	e-	8g/L	8dd\L
16G\L	.	16bb\L	16bb\L	(16G\LL	-xul-	(16B\LL	-xul-	(16g\LL	-xul-	16b\L	-xul-	16g/L	16dd\L
16F\JJ	.	16aa\JJ	16aa\JJ	16F\JJ)	.	16A\JJ)	.	16a\JJ)	.	16a\JJ	.	16g/JJ	16dd\JJ
8E\L	6	8gg\L	8gg\L	8E\	-te-	8G/	-te-	8g\	-te-	8g\	-te-	8cc/L	8ee\L
8G\J	5	8bb\J	8bb\J	8G\	-mus	8B\	-mus	8g\	-mus	8b\	-mus	8g/J	8dd\J
8C\L	.	8ee\L	8ee\L	8C/	e-	8c\	e-	8g\	e-	8cc\L	e-	8e/L	8cc\L
16G\L	5	16gg\L	16bb\L	(16G\LL	-xul-	(16d\LL	-xul-	(16b\LL	-xul-	16dd\L	-xul-	16g/L	16dd\L
16F\JJ	.	16aa\JJ	16aa\JJ	16F\JJ)	.	16c\JJ)	.	16a\JJ)	.	16cc\JJ	.	16e/JJ	16cc\JJ
8E\L	6	8gg\L	8gg\L	8E\	-te-	8c\	-te-	8g\	-te-	8cc\	-te-	8e/L	8cc\L
8G\J	5	8bb\J	8bb\J	8G\	-mus	8d\	-mus	8b\	-mus	8dd\	-mus	8g/J	8dd\J
*	*	*	*	*	*Xij	*	*Xij	*	*Xij	*	*Xij	*	*
!LO:LB:g=original	!	!	!	!	!	!	!	!LO:LB:g=original	!	!LO:LB:g=original	!	!	!
=13	=13	=13	=13	=13	=13	=13	=13	=13	=13	=13	=13	=13	=13
8A\L	6 3	8ccc\L	8ccc\L	8A\	et	8c\	et	8f\	et	8cc\	et	8e/L	8cc\L
8A\J	.	8ccc\J	8ccc\J	8A\	lae-	8c\	lae-	8f\	lae-	8cc\	lae-	8e/J	8cc\J
!	!	!	!	!	!	!LO:LB:g=original	!	!	!	!	!	!	!
16A\LL	6_	16ccc\LL	16ccc\LL	16A\LL	-te-	16c\LL	-te-	[16f\LL	-te-	16cc\LL	-te-	4r	4r
16B\	.	16ddd\	16ddd\	16B\	.	16d\	.	16f\]	.	16dd\	.	.	.
16A\	.	16ccc\	16ccc\	16A\	.	16c\	.	[16f\	.	16cc\	.	.	.
16B\JJ	.	16ddd\JJ	16ddd\JJ	16B\JJ	.	16d\JJ	.	16f\JJ]	.	16dd\JJ	.	.	.
16A\LL	.	16ccc\LL	16ccc\LL	16A\LL	.	16c\LL	.	[16f\LL	.	16cc\LL	.	2rg	2rg
16B\	.	16ddd\	16ddd\	16B\	.	16d\	.	16f\]	.	16dd\	.	.	.
16A\	.	16ccc\	16ccc\	16A\	.	16c\	.	[16f\	.	16cc\	.	.	.
16B\JJ	.	16ddd\JJ	16ddd\JJ	16B\JJ	.	16d\JJ	.	16f\JJ]	.	16dd\JJ	.	.	.
!	!	!	!	!LO:LB:g=original	!	!	!	!	!	!	!	!	!
8A\L	6_	8ccc\L	8ccc\L	8A\	-mur	8c\	-mur	8f\	.	8cc\	.	.	.
8F\J	.	8aa\J	8aa\J	8F\	.	8A\	.	8f\	-mur	8a\	-mur	.	.
=14	=14	=14	=14	=14	=14	=14	=14	=14	=14	=14	=14	=14	=14
!	!	!LO:TX:a:t=Solo	!	!	!	!	!	!	!	!	!	!	!
8F\L	3	8dd\L	8ff\L	8F\L	et	8d\	et	8a\	et	8dd\	et	8g/L	8dd\L
!	!	!	!LO:TX:b:t=Verte Cito	!	!	!	!	!	!	!	!	!	!
8F\J	6	8dd\J	8ff\J	8F\J	lae-	8d\	lae-	8a\	lae-	8dd\	lae-	16g/L	8dd\J
.	.	.	.	.	.	.	.	.	.	.	.	16g/JJ	.
!	!	!	!LO:LB:g=original	!	!	!	!	!	!	!	!	!	!
16F\LL	6_	16dd\LL	16dd\LL	16F\LL	-te-	16d\LL	-te-	(16a\LL	-te-	16dd\LL	-te-	16g/LL	16dd\LL
16G\	.	16dd\	16dd\	16G\	.	16d\	.	16b\)	.	16dd\	.	16g/	16dd\
16F\	.	16dd\	16dd\	16F\	.	16d\	.	(16a\	.	16dd\	.	16g/	16dd\
16G\JJ	.	16dd\JJ	16dd\JJ	16G\JJ	.	16d\JJ	.	16b\JJ)	.	16dd\JJ	.	16g/JJ	16dd\JJ
16F\LL	6_	8dd\L	16dd\LL	16F\LL	.	16d\LL	.	16a\LL	.	16dd\LL	.	16g/LL	16dd\LL
16G\	.	.	16dd\	16G\	.	16d\	.	16b\	.	16dd\	.	16g/	16dd\
16F\	.	8dd\J	16dd\	16F\	.	16d\	.	16a\	.	16dd\	.	16g/	16dd\
16G\JJ	.	.	16dd\JJ	16G\JJ	.	16d\JJ	.	16b\JJ	.	16dd\JJ	.	16g/JJ	16dd\JJ
8F\L	6	8dd\L	8dd\L	8F\	.	8d\	-mur	8a\	-mur	8dd\	.	8g/L	8dd\L
!	!	!LO:TX:b:t=Verte Cito	!	!	!	!	!	!	!	!	!	!	!
8D\J	.	8dd\J	8dd\J	8D\	-mur	8A\	.	8f\	.	8dd\	-mur	8g/J	8dd\J
!LO:LB:g=original	!	!LO:LB:g=original	!	!	!	!	!	!	!	!	!	!	!
=15	=15	=15	=15	=15	=15	=15	=15	=15	=15	=15	=15	=15	=15
!	!	!	!	!	!	!	!	!	!	!	!	!LO:TX:b:t=Verte	!
8G\L	5	8dd\L	8dd\L	8G\	et	8B\	et	8b\	et	8b\	et	2r	2rg
8G\J	.	8dd\J	8dd\J	8G\	lae-	8B\	lae-	8b\	lae-	8b\	lae-	.	.
16G\LL	.	16dd\LL	16dd\LL	16G\LL	-te-	16B\LL	-te-	16b\LL	-te-	16b\LL	-te-	.	.
16A\	.	16dd\	16dd\	16A\	.	16c\	.	16cc\	.	16cc\	.	.	.
16G\	.	16dd\	16dd\	16G\	.	16B\	.	16b\	.	16b\	.	.	.
16A\JJ	.	16dd\JJ	16dd\JJ	16A\JJ	.	16c\JJ	.	16cc\JJ	.	16cc\JJ	.	.	.
!	!	!	!	!	!	!	!	!	!	!	!	!LO:LB:g=original	!LO:TX:b:t=Verte Cito
16G\LL	.	16dd\LL	16dd\LL	16G\LL	.	16B\LL	.	16b\LL	.	16b\LL	.	4r	4r
!	!	!	!	!	!	!	!	!	!	!	!	!	!
!	!	!	!	!	!	!	!	!	!	!LO:TX:b:t=Verte cito	!	!	!
16A\	.	16dd\	16dd\	16A\	.	16c\	.	16cc\	.	16cc\JJ	.	.	.
!	!	!	!	!	!	!	!	!	!	!LO:LB:g=original	!	!	!
16G\	.	16dd\	16dd\	16G\	.	16B\	.	16b\	.	16b\LL	.	.	.
!	!	!	!	!	!	!	!	!LO:TX:b:t=Verte Cito	!	!	!	!	!
!	!	!	!	!	!	!	!	!LO:SIC:v:t=custos (oznacza zakończenie systemu, a nie konkretną wysokość kolejnego dźwięku)	!	!	!	!	!
16A\JJ	.	16dd\JJ	16dd\JJ	16A\JJ	.	16c\JJ	.	16cc\JJ	.	16cc\JJ	.	.	.
!	!	!	!	!	!	!	!	!LO:LB:g=original	!	!	!	!	!LO:LB:g=original
8G\L	.	8dd\L	8dd\L	8G\	.	8B\	-mur	8b\	-mur	8cc\	.	8g/L	8g\L
!	!	!	!	!	!	!	!	!LO:TX:t=P:problem=znak oddechu na 1 linii	!	!LO:TX:t=P:problem=znak oddechu na 1 linii	!	!	!
16E\L	6	16gg\L	16gg\L	16E\	-mur	16G/	.	16g,\	.	16cc,\	-mur	16e/L	16cc\L
!	!	!	!	!	!	!LO:TX:b:t=Verte Cito	!	!	!	!	!	!	!
16E\JJ	.	16gg\JJ	16gg\JJ	16E\	lae-	16G/	lae-	16g\	lae-	16cc\	Lae-	16e/JJ	16cc\JJ
!	!	!	!	!	!	!LO:LB:g=original	!	!	!	!	!	!	!
=16	=16	=16	=16	=16	=16	=16	=16	=16	=16	=16	=16	=16	=16
8F\L	.	8ccc\L	8aa\L	8F\	-te-	8A\	-te-	8a\	-te-	8cc\	-te-	8e/L	8cc\L
!	!	!	!	!	!	!LO:TX:t=P:problem=znak oddechu na 1 linii	!	!	!	!	!	!	!
16F\L	.	16ccc\L	16aa\L	16F\	-mur	16A,\	-mur	16a,\	-mur	16cc,\	-mur	16e/L	16cc\L
*	*	*	*	*	*	*	*	*	*ij	*	*ij	*	*
!	!	!	!	!LO:LB:g=original	!	!	!	!	!	!	!	!	!
16F\JJ	.	16ccc\JJ	16aa\JJ	16F\	lae-	16A\	lae-	16a\	lae-	16cc\	Lae-	16e/JJ	16cc\JJ
8G\L	.	8ddd\L	8bb\L	8G\	-te-	8B\	-te-	8g\	-te-	8dd\	-te-	8g/L	8dd\L
16G\L	.	16ddd\L	16bb\L	16G\	-mur	16B,\	-mur	16g,\	-mur	16dd,\	-mur	16g/L	16dd\L
*	*	*	*	*	*	*	*	*	*Xij	*	*	*	*
16G\JJ	.	16ddd\JJ	16bb\JJ	16G\	lae-	16B\	lae-	16g\	lae-	16dd\	Lae-	16g/JJ	16dd\JJ
8A\L	6	8ff\L	8ff\L	8A\	-te-	8c\	-te-	8f\	-te-	8cc\	-te-	8e/L	8cc\L
16E\L	6	16gg\L	16gg\L	16E\	-mur	16c\	-mur	16g\	-mur	16cc,\	-mur	16e/L	16cc\L
*	*	*	*	*	*	*	*	*	*	*	*Xij	*	*
16F\JJ	6 5	16aa\JJ	16aa\JJ	16F\	in	16c\	in	16a\	in	16cc\	in	16e/JJ	16cc\JJ
!LO:TX:t=P:problem=mixed beam	!	!	!	!LO:TX:t=P:problem=mixed beam	!	!	!	!	!	!	!	!	!
8G/L	4	8.gg\L	8.gg\L	8G/L	e-	(8c\L	e-	4g\	e-	(8cc\L	E-	8e/L	8cc\L
8GG/J	3	.	.	8GG/J	.	8B\J)	.	.	.	8dd\J)	.	8e/J	8g\J
.	.	16gg\Jk	16gg\Jk	.	.	.	.	.	.	.	.	.	.
!LO:LB:g=original	!	!	!	!	!	!	!	!	!	!	!	!	!
=17	=17	=17	=17	=17	=17	=17	=17	=17	=17	=17	=17	=17	=17
!LO:TX:b:t=Solo	!	!	!	!	!	!	!	!	!	!	!	!	!
4C/	.	4gg\	4r	4C/	-a	4c\	-a	4g\	-a	4ee\	-a	4c/	4e/
4r	.	16cc\LL	16ee\LL	4r	.	4r	.	4r	.	4r	.	16cc\LL	16ee\LL
.	.	16b\	16dd\	.	.	.	.	.	.	.	.	16g\	16dd\
.	.	16cc\	16ee\	.	.	.	.	.	.	.	.	16cc\	16ee\
.	.	16dd\JJ	16ff\JJ	.	.	.	.	.	.	.	.	16dd\JJ	16ff\JJ
!	!	!	!	!LO:TX:t=P:problem=brak kreski taktowej	!	!LO:TX:t=P:problem=brak kreski taktowej	!	!LO:TX:t=P:problem=brak kreski taktowej	!	!LO:TX:t=P:problem=brak kreski taktowej	!	!	!
4r	.	8ee\L	8gg\L	2r	.	2r	.	2r	.	2r	.	8ee\L	8gg\L
.	.	16dd\L	16ff\L	.	.	.	.	.	.	.	.	16dd\L	16ff\L
.	.	16cc\JJ	16ee\JJ	.	.	.	.	.	.	.	.	16cc\JJ	16ee\JJ
!	!	!	!LO:LB:g=original	!	!	!	!	!	!	!	!	!	!
4G\	7	8dd\L	8ff\L	.	.	.	.	.	.	.	.	8dd\L	8ff\L
.	.	16cc\L	16ee\L	.	.	.	.	.	.	.	.	16cc\L	16ee\L
.	.	16b\JJ	16dd\JJ	.	.	.	.	.	.	.	.	16g\JJ	16dd\JJ
=18	=18	=18	=18	=18	=18	=18	=18	=18	=18	=18	=18	=18	=18
!	!	!	!	!LO:TX:a:t=5	!	!LO:TX:a:t=5	!	!LO:TX:a:t=5	!	!	!	!	!
4C/	.	8cc\L	8ee\L	1r	.	1r	.	1r	.	1r	.	8cc\L	8ee\L
.	.	8cc\J	8ee\J	.	.	.	.	.	.	.	.	8cc\J	8ee\J
4r	.	8cc\L	8ee\L	.	.	.	.	.	.	.	.	8cc\L	8ee\L
.	.	16b\L	16dd\L	.	.	.	.	.	.	.	.	16g\L	16dd\L
.	.	16cc\JJ	16cc\JJ	.	.	.	.	.	.	.	.	16e\JJ	16cc\JJ
!LO:TX:t=P:problem=mixed beam	!	!	!	!	!	!	!	!	!	!	!	!	!
8G/L	.	16b\LL	16b\LL	.	.	.	.	.	.	.	.	16g/LL	16dd\LL
.	.	16cc\	16cc\	.	.	.	.	.	.	.	.	16e/	16cc\
8E/	.	16dd\	16dd\	.	.	.	.	.	.	.	.	16g/	16dd\
.	.	16ee\JJ	16ee\JJ	.	.	.	.	.	.	.	.	16cc/JJ	16ee\JJ
!	!	!LO:LB:g=original	!	!	!	!	!	!	!	!	!	!	!
8G/	.	8b/L	8dd\L	.	.	.	.	.	.	.	.	8g/L	8dd\L
8GG/J	.	16a/L	16cc\L	.	.	.	.	.	.	.	.	8e/J	8g\J
.	.	16g/JJ	16b\JJ	.	.	.	.	.	.	.	.	.	.
!	!	!	!	!	!	!	!	!	!	!	!	!LO:LB:g=original	!
=19	=19	=19	=19	=19	=19	=19	=19	=19	=19	=19	=19	=19	=19
4C/	.	8e/L	8cc\L	1r	.	1r	.	1r	.	1r	.	8e/L	8cc\L
.	.	8e/J	8cc\J	.	.	.	.	.	.	.	.	8e/J	8cc\J
4r	.	16cc\LL	16ee\LL	.	.	.	.	.	.	.	.	4r	4r
.	.	16b\	16dd\	.	.	.	.	.	.	.	.	.	.
.	.	16cc\	16ee\	.	.	.	.	.	.	.	.	.	.
.	.	16dd\JJ	16ff\JJ	.	.	.	.	.	.	.	.	.	.
!	!	!	!	!	!	!	!	!	!	!	!	!	!LO:LB:g=original
4r	.	8ee\L	8gg\L	.	.	.	.	.	.	.	.	2rg	2r
.	.	16dd\L	16ff\L	.	.	.	.	.	.	.	.	.	.
.	.	16cc\JJ	16ee\JJ	.	.	.	.	.	.	.	.	.	.
4G\	7	8dd\L	8ff\L	.	.	.	.	.	.	.	.	.	.
.	.	16cc\L	16ee\L	.	.	.	.	.	.	.	.	.	.
.	.	16b\JJ	16dd\JJ	.	.	.	.	.	.	.	.	.	.
=20	=20	=20	=20	=20	=20	=20	=20	=20	=20	=20	=20	=20	=20
!	!	!	!	!	!	!	!	!	!	!	!	!LO:TX:a:t=3	!
4C/	.	8cc\L	8ee\L	1r	.	1r	.	1r	.	1r	.	1r	1r
.	.	8cc\J	8ee\J	.	.	.	.	.	.	.	.	.	.
4r	.	8cc\L	8ee\L	.	.	.	.	.	.	.	.	.	.
.	.	16b\L	16dd\L	.	.	.	.	.	.	.	.	.	.
.	.	16cc\JJ	16cc\JJ	.	.	.	.	.	.	.	.	.	.
8G/L	.	16b\LL	16b\LL	.	.	.	.	.	.	.	.	.	.
.	.	16cc\	16cc\	.	.	.	.	.	.	.	.	.	.
!LO:TX:t=P:problem=mixed beam	!	!	!	!	!	!	!	!	!	!	!	!	!
8E/	6	16dd\	16dd\	.	.	.	.	.	.	.	.	.	.
.	.	16ee\JJ	16ee\JJ	.	.	.	.	.	.	.	.	.	.
8G/	4	8b/L	8dd\L	.	.	.	.	.	.	.	.	.	.
8GG/J	3	16a/L	16cc\L	.	.	.	.	.	.	.	.	.	.
.	.	16g/JJ	16b\JJ	.	.	.	.	.	.	.	.	.	.
!LO:LB:g=original	!	!	!	!	!	!	!	!	!	!	!	!	!
=21	=21	=21	=21	=21	=21	=21	=21	=21	=21	=21	=21	=21	=21
4C/	.	4e/	8cc\L	1r	.	1r	.	1r	.	4r	.	1r	1r
.	.	.	8cc\J	.	.	.	.	.	.	.	.	.	.
!	!	!	!	!	!	!	!	!	!	!LO:TX:b:t=Solo	!	!	!
4r	.	4r	4r	.	.	.	.	.	.	(16ee\LL	al-	.	.
.	.	.	.	.	.	.	.	.	.	16dd\)	.	.	.
.	.	.	.	.	.	.	.	.	.	(16ee\	-le-	.	.
.	.	.	.	.	.	.	.	.	.	16ff\JJ)	.	.	.
!	!	!	!	!	!	!	!	!	!	!LO:LB:g=original	!	!	!
4r	.	2rg	2rg	.	.	.	.	.	.	8gg\	-lu-	.	.
.	.	.	.	.	.	.	.	.	.	(16ff\LL	-ia	.	.
.	.	.	.	.	.	.	.	.	.	16ee,\JJ)	.	.	.
4G\	.	.	.	.	.	.	.	.	.	8ff\	al-	.	.
.	.	.	.	.	.	.	.	.	.	(16ee\LL	-le-	.	.
.	.	.	.	.	.	.	.	.	.	16dd\JJ)	.	.	.
!	!	!	!LO:LB:g=original	!	!	!	!	!	!	!	!	!	!
=22	=22	=22	=22	=22	=22	=22	=22	=22	=22	=22	=22	=22	=22
!	!	!LO:TX:a:t=1	!LO:TX:a:t=1	!	!	!	!	!	!	!	!	!	!
4C/	.	1r	1r	1r	.	1r	.	1r	.	8ee\	-lu-	1r	1r
.	.	.	.	.	.	.	.	.	.	8ee,\	-ia	.	.
4r	.	.	.	.	.	.	.	.	.	8ee\	al-	.	.
.	.	.	.	.	.	.	.	.	.	(16dd\LL	-le-	.	.
.	.	.	.	.	.	.	.	.	.	16cc\JJ)	.	.	.
!LO:TX:t=P:problem=mixed beam	!	!	!	!	!	!	!	!	!	!	!	!	!
8G/L	.	.	.	.	.	.	.	.	.	(16b\LL	-lu-	.	.
.	.	.	.	.	.	.	.	.	.	16cc\JJ)	.	.	.
8E/	6	.	.	.	.	.	.	.	.	(16dd\LL	-ia	.	.
.	.	.	.	.	.	.	.	.	.	16ee\JJ)	.	.	.
8G/	4	.	.	.	.	.	.	.	.	8dd\	al-	.	.
8GG/J	3	.	.	.	.	.	.	.	.	(16cc\LL	-le-	.	.
.	.	.	.	.	.	.	.	.	.	16b\JJ)	.	.	.
=23	=23	=23	=23	=23	=23	=23	=23	=23	=23	=23	=23	=23	=23
!LO:TX:b:t=Tutti.	!	!	!	!	!	!	!	!	!	!	!	!	!
!LO:TX:t=P:problem=mixed beam	!	!	!	!	!	!	!	!	!	!	!	!	!
8C\L	.	4r	4r	4r	.	4r	.	4r	.	8cc\	-lu-	4r	4r
8C\	.	.	.	.	.	.	.	.	.	8cc,\	-ia	.	.
!	!	!	!	!	!	!	!	!	!	!LO:TX:b:t=Tutti.	!	!	!
8c\	.	8gg\L	8gg\L	8c\	Al-	8c\	Al-	8g\	Al-	8ee\	al-	8ee\L	8gg\L
8c\J	.	8gg\J	8gg\J	8c\	-le-	8c\	-le-	8g\	-le-	8ee\	-le-	8ee\J	8gg\J
8B\L	6	8gg\L	8gg\L	8B\	-lu-	8d\	-lu-	8g\	-lu-	8dd\	-lu-	8ee\L	8gg\L
!	!	!	!	!LO:TX:t=P:problem=znak oddechu na 1 linii	!	!	!	!	!	!	!	!	!
8A\	6	8ff\	8ff\	8A,\	-ia	8c\	-ia	8f,\	-ia	8cc,\	-ia	8dd\	8ff\
8G\	6	8gg\	8gg\	8G\	al-	8c\	al-	8e\	al-	8cc\	al-	8ee\	8gg\
!	!	!	!	!	!	!	!	!LO:LB:g=original	!	!	!	!	!
8F\J	.	8aa\J	8aa\J	8F\	-le-	8c\	-le-	8f\	-le-	8cc\	-le-	8ff\J	8aa\J
!	!	!	!	!LO:LB:g=original	!	!	!	!	!	!	!	!	!
=24	=24	=24	=24	=24	=24	=24	=24	=24	=24	=24	=24	=24	=24
8E\L	6	8gg\L	8gg\L	8E\	-lu-	8c\	-le-	8g\	-lu-	8cc\	-lu-	8ee\L	8gg\L
8D\	6	8gg\	8gg\	8D,\	-ia	8B,\	-ia	8g,\	-ia	8dd,\	-ia	8ee\	8gg\
*	*	*	*	*	*	*	*ij	*	*ij	*	*ij	*	*
8C\	.	8gg\	8gg\	8C/	al-	8c\	al-	8g\	al-	8ee\	al-	8ee\	8gg\
8D\J	6	8gg\J	8gg\J	8D\	-le-	8d\	-le-	8g\	-le-	8dd\	-le-	8ee\J	8gg\J
!LO:LB:g=original	!	!	!	!	!	!	!	!	!	!	!	!	!
!LO:TX:t=P:problem=mixed beam	!	!	!	!LO:LB:g=original	!	!	!	!	!	!	!	!	!
!	!	!LO:LB:g=original	!	!	!	!	!	!	!	!	!	!	!
8E/L	6	8gg\L	8gg\L	8E\	-lu-	8c\	-lu-	8g\	-lu-	8cc\	-lu-	8ee\L	8gg\L
8F/	6 5	8aa\J	8aa\	8F,\	-ia	8c,\	-ia	8a,\	-ia	8cc,\	-ia	8ff\	8aa\
*	*	*	*	*	*ij	*	*Xij	*	*Xij	*	*	*	*
8G/	4	8gg\L	8gg\	8G\	al-	8c\	al-	8g\	al-	8cc\	al-	8ee\	8gg\
8GG/J	3	8gg\J	8gg\J	8GG/	-le-	8B\	-le-	8g\	-le-	8b\	-le-	8ee\J	8gg\J
=25	=25	=25	=25	=25	=25	=25	=25	=25	=25	=25	=25	=25	=25
!LO:TX:t=P:problem=mixed beam	!	!	!	!	!	!	!	!	!	!	!	!	!
8C\L	.	8gg\L	8gg\L	8C/	-lu-	8c\	-lu-	8g\	-lu-	8cc\	-lu-	8ee\L	8gg\L
8C\	.	8gg\	8gg\	8C,/	-ia	8c,\	-ia	8g,\	-ia	8cc,\	-ia	8ee\	8gg\
*	*	*	*	*	*	*	*ij	*	*ij	*	*Xij	*	*
8c\	.	8gg\	8gg\	8c\	al-	8c\	al-	8g\	al-	8ee\	al-	8ee\	8gg\
8c\J	.	8gg\J	8gg\J	8c\	-le-	8c\	-le-	8g\	-le-	8ee\	-le-	8ee\J	8gg\J
8B\L	6	8gg\L	8gg\L	8B\	-lu-	8d\	-lu-	8g\	-lu-	8dd\	-lu-	8ee\L	8gg\L
8A\J	6	8ff\	8aa\	8A,\	-ia	8c,\	-ia	8f,\	-ia	8cc,\	-ia	8dd\	8ff\
*	*	*	*	*	*	*	*	*	*	*	*ij	*	*
8G\L	6	8gg\	8gg\	8G\	al-	8c\	al-	8g\	al-	8cc\	al-	8ee\	8gg\
8F\J	.	8aa\J	8aa\J	8F\	-le-	8c\	-le-	8a\	-le-	8cc\	-le-	8ff\J	8aa\J
=26	=26	=26	=26	=26	=26	=26	=26	=26	=26	=26	=26	=26	=26
8E\L	6	8gg\L	8gg\L	8E\	-lu-	8c\	-lu-	8g\	-lu-	8cc\	-lu-	8ee\L	8gg\L
8D\	6	8gg\	8gg\	8D,\	-ia	8B,\	-ia	8g,\	-ia	8dd,\	-ia	8ee\	8gg\
*	*	*	*	*	*Xij	*	*Xij	*	*Xij	*	*	*	*
8C\	.	8gg\	8gg\	8C/	al-	8c\	al-	8g\	al-	8ee\	al-	8ee\	8gg\
!	!	!	!	!LO:LB:g=original	!	!	!	!	!	!	!	!	!
8D\J	6	8gg\J	8gg\J	8D\	-le-	8B\	-le-	8g\	-le-	8dd\	-le-	8ee\J	8gg\J
!LO:TX:t=P:problem=mixed beam	!	!	!	!	!	!LO:LB:g=original	!	!	!	!	!	!	!
8E/L	6	8gg\L	8gg\L	8E\	-lu-	8c\	-lu-	8g\	-lu-	8cc\	-lu-	8ee\L	8gg\L
8F/	6 5	8aa\J	8aa\	8F,\	-ia	8c,\	-ia	8a,\	-ia	8cc\	-ia	8ff\	8aa\J
*	*	*	*	*	*	*	*	*	*	*	*Xij	*	*
!	!	!	!	!	!	!	!	!	!	!LO:TX:t=P:problem=tekst w tt. 26-28 został podzielony zgodnie z A T B	!	!	!
8G/	4	8gg\L	8gg\	8G\	Al-	8c\	al-	8.g\	al-	8cc\	al-	8ee\	8gg\L
8GG/J	3	16ff#X\L	8aa\J	8GG/	-le-	8B\	-le-	.	.	8b,\	-le-	8ff\J	8aa\J
.	.	16gg\JJ	.	.	.	.	.	16g\	-le-	.	.	.	.
!LO:LB:g=original	!	!	!	!	!	!LO:LB:g=original	!	!	!	!	!	!LO:LB:g=original	!
=27	=27	=27	=27	=27	=27	=27	=27	=27	=27	=27	=27	=27	=27
!LO:TX:t=P:problem=mixed beam	!	!	!	!	!	!	!	!	!	!	!	!	!
8C\L	.	8gg\L	8gg\L	8C/	-lu-	8c\	-lu-	8g\	-lu-	8cc\	-lu-	8ee\L	8gg\L
8C\	.	8gg\	8gg\	8C/	-ia	8c,\	-ia	8g,\	-ia	8cc\	-ia	8ee\	8gg\
*	*	*	*	*	*	*	*ij	*	*ij	*	*ij	*	*
8c\	.	8gg\	8gg\	4r	.	8c\	al-	8g\	al-	8ee\	al-	8ee\	8gg\
8c\J	.	8gg\J	8gg\J	.	.	8c\	-le-	8g\	-le-	8ee,\	-le-	8ee\J	8gg\J
!	!	!	!	!LO:TX:t=P:problem=partia kończy sie w t. 27	!	!	!	!	!	!	!	!	!
!	!	!	!	!LO:TX:b:t=S. I. B.	!	!	!	!	!	!	!	!	!
8B\L	6	8gg\L	8gg\L	2rBB	.	8d\	-lu-	8g\	-lu-	8dd\	-lu-	8ee\L	8gg\L
8A\	6	8aa\	8aa\	.	.	8c,\	-ia	8f,\	-ia/	8cc\	-ia	8ff\	8aa\J
!	!	!	!	!	!	!	!	!	!	!	!	!	!LO:LB:g=original
8G\	6	8gg\	8gg\	.	.	8c\	al-	8g\	al-	8cc\	al-	8ee\	8gg\L
8F\J	.	8aa\J	8gg\J	.	.	8c\	-le-	8a\	-le-	8cc\	-le-	8ee\J	8gg\J
!	!	!	!LO:LB:g=original	!	!	!	!	!	!	!	!	!	!
=28	=28	=28	=28	=28	=28	=28	=28	=28	=28	=28	=28	=28	=28
8E\L	6	8gg\L	8gg\L	1ryy	.	8c\	-lu-	8g\	-le-	8cc\	-lu-	8ee\L	8gg\L
8D\	.	8gg\	8gg\	.	.	8B,\	-ia	8g,\	-ia	8dd,\	-ia	8ee\	8gg\
*	*	*	*	*	*	*	*Xij	*	*ij	*	*	*	*
8C\	.	8gg\	8gg\	.	.	8c\	al-	8g\	al-	8ee\	al-	8ee\	8gg\
8D\J	6	8gg\J	8gg\J	.	.	8B\	-le-	8g\	-le-	8dd\	-le-	8ee\J	8gg\J
!LO:TX:t=P:problem=mixed beam	!	!	!	!	!	!	!	!	!	!	!	!	!
8E/L	6	8gg\L	8gg\L	.	.	8c\	-lu-	8g\	-lu-	8cc\	-lu-	8ee\L	8gg\L
8F/	6 5	8aa\J	8aa\	.	.	8c,\	-ia	8a,\	-ia	8cc,\	-ia	8ff\	8aa\
*	*	*	*	*	*	*	*	*	*Xij	*	*Xij	*	*
8G/	7 4	16gg\LL	8gg\	.	.	8c\	al-	8.g\	Al-	8cc\	Al-	8ee\	8gg\
.	.	16aa\	.	.	.	.	.	.	.	.	.	.	.
!	!	!	!	!	!	!LO:LB:g=original	!	!	!	!	!	!	!
8GG/J	x 3	16gg\	8gg\J	.	.	8B\	-le-	.	.	8b\	-le-	8ee\J	8gg\J
.	.	16ff\JJ	.	.	.	.	.	16g\	-le-	.	.	.	.
!	!	!LO:LB:g=original	!	!	!	!	!	!LO:LB:g=original	!	!	!	!	!
=29	=29	=29	=29	=29	=29	=29	=29	=29	=29	=29	=29	=29	=29
4C/	.	8ee\L	8gg\L	1ryy	.	8c\	-lu-	8g\	-lu-	8ee\	-lu-	8ee\L	8gg\L
.	.	8ee\J	8gg\J	.	.	8c\	-ia.	8g\	-ia	8ee\	-ia.	8ee\J	8gg\J
4r	.	4r	4r	.	.	4r	.	4r	.	4r	.	4r	4r
!LO:TX:b:t=Laus Deo Patri\nS. I. B.	!	!LO:TX:b:t=Laus Deo Patri\nS. I. B.	!LO:TX:b:t=S. I. B.	!	!	!LO:TX:b:t=S. I. B.	!	!LO:TX:b:t=S. I. B.	!	!	!	!LO:TX:b:t=S. I. B.	!LO:TX:b:t=S. I. B.
2r	.	2r	2r	.	.	2r	.	2r	.	2r	.	2rg	2r
==	==	==	==	==	==	==	==	==	==	==	==	==	==
*-	*-	*-	*-	*-	*-	*-	*-	*-	*-	*-	*-	*-	*-
!!!system-decoration: [(s1,s2)][(s3,s4,s5,s6)][(s7,s8)][(s9)]
!!!ENC: Andrzej Kubiczek
!!!END: 2020-11-26
!!!ENC: Natalia Wrzos
!!!END: 2022-02-14
!!!YEC: Copyright 2022 Narodowy Instytut Fryderyka Chopina (https://polishscores.org)
!!!YEM: License CC-BY-4.0 (https://creativecommons.org/licenses/by/4.0)
